app/dist/common/images/wuxi-autowell-technology-coltd.svg

<svg height="18" viewBox="0 0 18 18" width="18" xmlns="http://www.w3.org/2000/svg"><path d="m0 0h18v18h-18z" fill="#f0f3fa"/><path d="m5.6 7h-1.5l-1.1 4h1.64l.95-4zm8.58 4h-1.5l-1.08-4h1.64l.95 4zm-1.64 0h-1.63l-1.11-4h1.64z" fill="#126a9a"/><path d="m6.27 11h-1.5l.69-3.08zm8.73-4h-1.64l.82 3.08zm-8.45 0h.95v1.23h-.95z" fill="#33b4c6"/><path d="m7.64 11v-4h1.9v1.23h-.81v2.77h-1.1z" fill="#106b98"/></svg>

<!-- by TradingView --><svg width="18" height="18" viewBox="0 0 18 18" xmlns="http://www.w3.org/2000/svg"><path fill="#F0F3FA" d="M0 0h18v18H0z"/><path d="M5.6 7H4.1L3 11h1.64l.95-4ZM14.18 11h-1.5L11.6 7h1.64l.95 4ZM12.54 11h-1.63L9.8 7h1.64l1.1 4Z" fill="#126A9A"/><path d="M6.27 11h-1.5l.69-3.08.81 3.08ZM15 7h-1.64l.82 3.08L15 7ZM6.55 7h.95v1.23h-.95V7Z" fill="#33B4C6"/><path d="M7.64 11V7h1.9v1.23h-.81V11h-1.1Z" fill="#106B98"/></svg>
